**kern	**kern	**kern	**kern
*MM76	*MM76	*MM76	*MM76
*k[f#c#g#d#]	*k[f#c#g#d#]	*k[f#c#g#d#]	*k[f#c#g#d#]
*M2/4	*M2/4	*M2/4	*M2/4
*tb64	*tb64	*tb64	*tb64
=1	=1	=1	=1
2r	2r	2e	2r
=2	=2	=2	=2
2r	2B	4f#	2r
.	.	4g#	.
=3	=3	=3	=3
2r	4c#	4a	2r
.	4d#	8g#	.
.	.	8f#	.
=4	=4	=4	=4
2r	4e	4g#	2r
.	8d#	4a#	.
.	8c#	.	.
=5	=5	=5	=5
2r	4d#	4b	2r
.	[4c#	4e	.
=6	=6	=6	=6
2r	4c#]	[2a	2r
.	8B	.	.
.	8A	.	.
=7	=7	=7	=7
2E	2B	4a]	2r
.	.	4g#	.
=8	=8	=8	=8
4F#	4A	4d#	2b
4G#	4B	4e	.
=9	=9	=9	=9
4A	2A	4e	4cc#
8G#	.	4f#	4dd#
8F#	.	.	.
=10	=10	=10	=10
4G#	4B	4e	4ee
4A#	4c#	[4f#	8dd#
.	.	.	8cc#
=11	=11	=11	=11
4B	8B	4f#]	4dd#
.	8f#	.	.
[4E	8e	4g#	8cc#
.	8d#	.	8b
=12	=12	=12	=12
4E]	4c#	2f#	4a#
4D#	4B	.	[4b
=13	=13	=13	=13
4C#	2c#	8e	4b]
.	.	8g#	.
4F#	.	8f#	4a#
.	.	8e	.
=14	=14	=14	=14
4BB	4.B	4d#	8b
.	.	.	8a
4E	.	[4e	4g#
.	8G#	.	.
=15	=15	=15	=15
4AA	8c#	4e]	2f#
.	8A	.	.
4BB	8F#	4d#	.
.	8A	.	.
=16	=16	=16	=16
4EE	4G#	[2e	2e
4r	4c#	.	.
=17	=17	=17	=17
2r	4A	8e]	4f#
.	.	8c#	.
.	4B	4d#	4g#
=18	=18	=18	=18
2r	8c#	4e	4a
.	8A	.	.
.	8B	8e	8g#
.	8BB	8d#	8f#
=19	=19	=19	=19
2r	8E	4e	4g#
.	8G#	.	.
.	8F#	8d#	4a#
.	8E	8c#	.
=20	=20	=20	=20
2BB	8F#	4d#	4b
.	8BB	.	.
.	4B	4r	4dd#
=21	=21	=21	=21
4C#	8A	2r	4ee
.	8c#	.	.
4D#	8F#	.	4ff#
.	8B	.	.
=22	=22	=22	=22
4E	4G#	2e	4b
8D#	4A#	.	4cc#
8C#	.	.	.
=23	=23	=23	=23
4D#	2B	4f#	4f#
4E#	.	4g#	4r
=24	=24	=24	=24
4F#	8A	4a	2r
.	8c#	.	.
4BB	4d#	8g#	.
.	.	8f#	.
=25	=25	=25	=25
[2E	8B	8g#	2b
.	8A	8f#	.
.	8G#	8e	.
.	8B	8g#	.
=26	=26	=26	=26
4E]	8A#	4.f#	4cc#
.	8F#	.	.
4D#	[4B	.	4dd#
.	.	8f#	.
=27	=27	=27	=27
2C#	8B]	8e	4ee
.	8B	8g#	.
.	4A#	4f#	8dd#
.	.	.	8cc#
=28	=28	=28	=28
2BB	8B	4f#	4dd#
.	8A	.	.
.	8G#	4g#	4ee#
.	8c#	.	.
=29	=29	=29	=29
4AA#	4c#	2f#	8ff#
.	.	.	8ee
4AA	[4B	.	8dd#
.	.	.	8b
=30	=30	=30	=30
4GG#	4B]	2e	8ee
.	.	.	8dd
4GG	8A#	.	8cc#
.	8B	.	8b
=31	=31	=31	=31
4FF#	4c#	4f#	4a#
4EE#	4d	4g#	[4b
=32	=32	=32	=32
2FF#	2c#	8f#	4b]
.	.	8g#	.
.	.	8f#	4a#
.	.	8e	.
=33	=33	=33	=33
4BB	8B	4d#	2b
.	8BB	.	.
4r	[4B	4g#	.
=34	=34	=34	=34
2r	8B]	4f#	4a
.	8BB	.	.
.	[4B	4e	4g#
=35	=35	=35	=35
2r	8B]	4d#	4f#
.	8A	.	.
.	8G#	8e	8g#
.	8F#	8f#	8a
=36	=36	=36	=36
2r	2E	2g#	4b
.	.	.	4ee
=37	=37	=37	=37
2r	4F#	8a	4dd#
.	.	8f#	.
.	4G#	8b	4ee
.	.	[8e	.
=38	=38	=38	=38
2r	4A	8e]	4cc#
.	.	8cc#	.
.	8G#	8b	4dd#
.	8F#	8a	.
=39	=39	=39	=39
2r	4G#	4b	8ee
.	.	.	8gg#
.	4A#	[4cc#	8ff#
.	.	.	8ee
=40	=40	=40	=40
2BB	4B	8cc#]	4.dd#
.	.	8a#	.
.	4r	[4b	.
.	.	.	8dd#
=41	=41	=41	=41
4C#	2r	8b]	4.ee
.	.	8g#	.
4D#	.	4a	.
.	.	.	8ff#
=42	=42	=42	=42
4E	2e	4g#	4b
8D#	.	4a#	4cc#
8C#	.	.	.
=43	=43	=43	=43
[2BB	4f#	4b	4dd#
.	4g#	[4b	4ee
=44	=44	=44	=44
2BB_	4a	2b]	4ff#
.	8g#	.	8ee
.	8f#	.	8dd#
=45	=45	=45	=45
2BB_	8g#	4b	8ee
.	8e	.	8gg#
.	4a#	4cc#	8ff#
.	.	.	8ee
=46	=46	=46	=46
4BB]	4b	4f#	4dd#
[4B	4d	4f#	4b
=47	=47	=47	=47
8B]	[2e	[2g#	[2cc#
8A	.	.	.
8B	.	.	.
8G#	.	.	.
=48	=48	=48	=48
[2A	8e]	8g#]	2cc#]
.	8d#	8f#	.
.	8e	8g#	.
.	8c#	8e	.
=49	=49	=49	=49
8A]	[2d#	[2f#	[2b
8G#	.	.	.
8A	.	.	.
8F#	.	.	.
=50	=50	=50	=50
[2G#	8d#]	8f#]	2b]
.	8c#	8e	.
.	8d#	8f#	.
.	8B	8d#	.
=51	=51	=51	=51
8G#]	[2c#	[2e	[2a
8F#	.	.	.
8G#	.	.	.
8E	.	.	.
=52	=52	=52	=52
2F#	8c#]	8e]	2a_
.	8B	8d#	.
.	8c#	8e	.
.	8A	8c#	.
=53	=53	=53	=53
[2BB	[2B	[2d#	8a]
.	.	.	8g#
.	.	.	8a
.	.	.	8f#
=54	=54	=54	=54
2BB_	8B]	8d#]	[2g#
.	8A	8c#	.
.	8B	8d#	.
.	8G#	8B	.
=55	=55	=55	=55
2BB_	[2A	[2c#	8g#]
.	.	.	8f#
.	.	.	8g#
.	.	.	8e
=56	=56	=56	=56
2BB_	8A]	8c#]	[2f#
.	8G#	8B	.
.	8A	8c#	.
.	8F#	8A	.
=57	=57	=57	=57
2BB_	[2G#	[2B	8f#]
.	.	.	8e
.	.	.	8f#
.	.	.	8d#
=58	=58	=58	=58
2BB_	8G#]	8B]	[2e
.	8F#	8A	.
.	8G#	8B	.
.	8E	8G#	.
=59	=59	=59	=59
2BB]	[2F#	[2A	8e]
.	.	.	8d#
.	.	.	8e
.	.	.	8c#
=60	=60	=60	=60
2BB#	8F#]	8A]	4.d#
.	8E	8G#	.
.	4F#	4A	.
.	.	.	8d#
=61	=61	=61	=61
4.C#	4.E	4.G#	8e
.	.	.	8B#
.	.	.	8c#
8FF#	8A	8c#	8f#
=62	=62	=62	=62
2GG#	4.G#	8c#	4e
.	.	8A#	.
.	.	4B#	4d#
.	8F#	.	.
=63	=63	=63	=63
2C#	2E	2G#	2c#
=64	=64	=64	=64
2r	2r	2G#	4d#
.	.	.	4e
=65	=65	=65	=65
2r	2r	4A#	4f#
.	.	4B#	8e
.	.	.	8d#
=66	=66	=66	=66
2r	2r	4c#	4e
.	.	4B	[4g#
=67	=67	=67	=67
2r	2r	4A#	4g#]
.	.	4d#	[4f#
=68	=68	=68	=68
2r	2r	4G#	4f#]
.	.	[4c#	4e
=69	=69	=69	=69
2r	2G#	4c#]	[2d#
.	.	8B#	.
.	.	8A#	.
=70	=70	=70	=70
2r	4F#	4B#	4d#]
.	4E	4c#	4e
=71	=71	=71	=71
2r	4D#	4B#	4f#
.	8E	4c#	4e
.	8F#	.	.
=72	=72	=72	=72
2r	4G#	4B#	4d#
.	4F#	8c#	8e
.	.	8d#	8f#
=73	=73	=73	=73
2r	4E	4e	4g#
.	8F#	4d#	4f#
.	8G#	.	.
=74	=74	=74	=74
2r	4A	4c#	4e
.	4G#	8d#	8f#
.	.	8e	8g#
=75	=75	=75	=75
2r	4F#	[2f#	[2a
.	8G#	.	.
.	8A	.	.
=76	=76	=76	=76
2r	4BB	4f#]	4a]
.	8C#	[4e	[4g#
.	8D#	.	.
=77	=77	=77	=77
2r	8GG#	4e]	4g#]
.	8G#	.	.
.	8A	[4d#	[4f#
.	8F#	.	.
=78	=78	=78	=78
2r	8B#	4d#]	4f#]
.	8G#	.	.
.	8A	[4c#	4e
.	8E	.	.
=79	=79	=79	=79
2r	4F#	4c#]	8d#
.	.	.	8e
.	4G#	4B#	4f#
=80	=80	=80	=80
2C#	8C#	4.c#	8e
.	8D#	.	8f#
.	4E	.	4g#
.	.	8c#	.
=81	=81	=81	=81
4D#	4F#	4B#	4f#
4E	4G#	4c#	4e
=82	=82	=82	=82
4F#	4A	4B#	4d#
8E	8G#	8c#	[4g#
8D#	8F#	8B#	.
=83	=83	=83	=83
4E	8G#	4.c#	4g#]
.	8A	.	.
4E#	[4B	.	[4g#
.	.	8c#	.
=84	=84	=84	=84
4.F#	8B]	2d	8g#]
.	8G#	.	8e#
.	8A	.	8f#
8BB	8B	.	8g#
=85	=85	=85	=85
2C#	4A	2c#	8c#
.	.	.	4f#
.	4G#	.	.
.	.	.	8e#
=86	=86	=86	=86
4F#	8A	2r	2f#
.	8d	.	.
4r	8c#	.	.
.	8d	.	.
=87	=87	=87	=87
2r	8B	4e#	4g#
.	8c#	.	.
.	8A	[4f#	4a
.	8B	.	.
=88	=88	=88	=88
2r	8G#	4f#]	4b
.	8c#	.	.
.	8B	4e#	8a
.	8c#	.	8g#
=89	=89	=89	=89
2r	8F#	4f#	4a
.	8c#	.	.
.	8d	[4g#	[4b
.	8c#	.	.
=90	=90	=90	=90
2r	8B	4g#]	4b]
.	8A	.	.
.	8G#	4a	4cc#
.	8F#	.	.
=91	=91	=91	=91
2r	8E#	2b	4dd
.	8F#	.	.
.	8D#	.	[4cc#
.	8E#	.	.
=92	=92	=92	=92
2r	8F#	2a	4cc#]
.	8G#	.	.
.	8E#	.	[4b
.	8F#	.	.
=93	=93	=93	=93
2r	8G#	2g#	4b]
.	8A	.	.
.	8F#	.	[4a
.	8G#	.	.
=94	=94	=94	=94
2r	8A	2f#	4a]
.	8B	.	.
.	8c#	.	8g#
.	8d	.	8f#
=95	=95	=95	=95
2r	8c#	2e#	2g#
.	8d	.	.
.	8B	.	.
.	8c#	.	.
=96	=96	=96	=96
2F#	8A	2c#	2f#
.	8G#	.	.
.	8A	.	.
.	8F#	.	.
=97	=97	=97	=97
4E#	2c#	4g#	4g#
4D#	.	4f#	4a
=98	=98	=98	=98
4C#	4c#	4e#	4b
8D#	4B	8f#	8a
8E#	.	8g#	8g#
=99	=99	=99	=99
4F#	4A	4c#	4f#
4E	4G#	4c#	[4cc#
=100	=100	=100	=100
4D#	8F#	2d#	4cc#]
.	8A	.	.
4G#	8G#	.	[4b
.	8F#	.	.
=101	=101	=101	=101
4C#	4E#	4c#	4b]
4BB#	[4F#	4d#	4a
=102	=102	=102	=102
4.C#	8F#]	4G#	4.g#
.	16E	.	.
.	16D#	.	.
.	4E	4c#	.
8FF#	.	.	8a#
=103	=103	=103	=103
4GG#	8D#	4B	4.b
.	16E	.	.
.	16F#	.	.
4EE	4G#	4e	.
.	.	.	8cc#
=104	=104	=104	=104
2FF# 2f#	4F#	4d#	8f#
.	.	.	4b
.	4E	4c#	.
.	.	.	8a#
=105	=105	=105	=105
4BB 4f#	4D#	4B	2b
4r	4G#	[4b	.
=106	=106	=106	=106
2r	4A	8b]	4cc#
.	.	8a	.
.	4B	8g#	4dd#
.	.	8f#	.
=107	=107	=107	=107
2r	4c#	4e	4ee
.	4d#	4f#	8dd#
.	.	.	8cc#
=108	=108	=108	=108
2r	8r	4g#	4b
.	8e	.	.
.	8d#	4a#	4cc#
.	8c#	.	.
=109	=109	=109	=109
2r	4B	8r	4dd#
.	.	8b	.
.	[4c#	8a	4ee#
.	.	8g#	.
=110	=110	=110	=110
2r	4c#]	8a	4ff#
.	.	8cc#	.
.	[4B	8dd	[4gg#
.	.	8b	.
=111	=111	=111	=111
2r	4B]	8g#	4gg#]
.	.	8b	.
.	[4A	4cc#	8ff#
.	.	.	8ee
=112	=112	=112	=112
2r	8A]	4f#	8dd#
.	16G#	.	8b
.	16F#	.	.
.	8G#	[4ee	8ee
.	8E	.	8gg#
=113	=113	=113	=113
2r	4F#	8ee]	4.aa
.	.	16dd#	.
.	.	16cc#	.
.	4B	4dd#	.
.	.	.	16gg#
.	.	.	16ff#
=114	=114	=114	=114
2E	8E	4b	4gg#
.	8e	.	.
.	8d#	4a	8ff#
.	8c#	.	8ee
=115	=115	=115	=115
4F#	8B	4a	4dd#
.	8A	.	.
4G#	8G#	[4b	8ee
.	8F#	.	8dd#
=116	=116	=116	=116
4A	8E	8b]	4.cc#
.	8F#	16a	.
.	.	16g#	.
8G#	8G#	4a	.
8F#	8A	.	8dd#
=117	=117	=117	=117
4G#	8BB	4e	4ee
.	8G#	.	.
4A#	8F#	[4f#	8dd#
.	8E	.	8cc#
=118	=118	=118	=118
4B	8D#	8f#]	4b
.	8F#	8d#	.
4G#	[4B	[4e	8ee
.	.	.	8dd#
=119	=119	=119	=119
4A	8B]	8e]	8cc#
.	8E	8b	8dd#
4AA	8c#	4a	8ee
.	8d#	.	8ff#
=120	=120	=120	=120
[2E	4e	4g#	8b
.	.	.	8gg#
.	[4c#	4g#	8ee
.	.	.	8cc#
=121	=121	=121	=121
4E]	8c#]	4f#	8a#
.	16B	.	8cc#
.	16A#	.	.
8D#	8B	8f#	[4ff#
8BB	8d#	16g#	.
.	.	16a	.
=122	=122	=122	=122
4G#	2B	4b	8ff#]
.	.	.	16ee
.	.	.	16dd#
4G	.	8e	8cc#
.	.	8e#	8b
=123	=123	=123	=123
4F#	8c#	8f#	8a#
.	8A#	8e	8f#
8E#	4G#	4d	[4b
8C#	.	.	.
=124	=124	=124	=124
4F#	[2F#	8c#	8b]
.	.	8g#	8ee
4FF#	.	8f#	8dd#
.	.	8e	8cc#
=125	=125	=125	=125
4BB	4F#]	8d#	2b
.	.	16b	.
.	.	16a	.
4E	4r	8g#	.
.	.	8f#	.
=126	=126	=126	=126
4A	2r	8e	4cc#
.	.	16a	.
.	.	16g#	.
4BB	.	8f#	4dd#
.	.	16b	.
.	.	16a	.
=127	=127	=127	=127
4E	2r	8g#	4ee
.	.	16cc#	.
.	.	16b	.
4F#	.	4a#	8dd#
.	.	.	8cc#
=128	=128	=128	=128
4B	2r	4b	8dd#
.	.	.	8ee
4BB	.	4a	16ff#
.	.	.	16dd#
.	.	.	16ee
.	.	.	16ff#
=129	=129	=129	=129
4E	2e	2g#	8b
.	.	.	16gg#
.	.	.	16ff#
4r	.	.	8ee
.	.	.	8dd#
=130	=130	=130	=130
2r	4f#	8a	8cc#
.	.	8a#	16ff#
.	.	.	16ee
.	4g#	8b	8dd#
.	.	8b#	16gg#
.	.	.	16ff#
=131	=131	=131	=131
2r	4c#	4cc#	8ee
.	.	.	16aa
.	.	.	16gg#
.	4d#	8b#	[4ff#
.	.	16cc#	.
.	.	16dd#	.
=132	=132	=132	=132
2r	4e	[2g#	8ff#]
.	.	.	16ee
.	.	.	16dd#
.	4c#	.	8ee
.	.	.	16ff#
.	.	.	16gg#
=133	=133	=133	=133
2r	8A	8g#]	[2cc#
.	8G#	16f#	.
.	.	16e	.
.	8A	8f#	.
.	[8F#	16g#	.
.	.	16a	.
=134	=134	=134	=134
2GG#	8F#]	2d#	8cc#]
.	8D#	.	16b#
.	.	.	16a#
.	4G#	.	8b#
.	.	.	16cc#
.	.	.	16dd#
=135	=135	=135	=135
4AA#	4F##	4e	4cc#
4BB#	4F#	4d#	4dd#
=136	=136	=136	=136
4C#	4E	8c#	[2g#
.	.	8e	.
8BB#	8F#	8d#	.
8AA#	8G#	8e	.
=137	=137	=137	=137
4BB#	8F#	8d#	2g#_
.	8d#	8g#	.
8C#	8c#	8e	.
8D#	8B#	8d#	.
=138	=138	=138	=138
[2GG#	4c#	4e	4g#]
.	4B#	4d#	[4a
=139	=139	=139	=139
2GG#_	4c#	4e	8a]
.	.	.	8g#
.	4d#	4f#	8cc#
.	.	.	8b#
=140	=140	=140	=140
2GG#_	4e	4g#	8cc#
.	.	.	8b#
.	4A#	4f##	8ee
.	.	.	8dd#
=141	=141	=141	=141
4GG#]	4B#	4g#	4dd#
4r	8r	8r	[4gg#
.	8e	8g#	.
=142	=142	=142	=142
2r	4f#	[4a	8gg#]
.	.	.	16ff#
.	.	.	16ee
.	4d#	16a]	[4ff#
.	.	16b	.
.	.	16a	.
.	.	16b	.
=143	=143	=143	=143
2r	4e	[4g#	8ff#]
.	.	.	16ee
.	.	.	16dd#
.	4c#	16g#]	[4ee
.	.	16a#	.
.	.	16g#	.
.	.	16a#	.
=144	=144	=144	=144
2r	[2B	8b	8ee]
.	.	8a	16dd#
.	.	.	16cc#
.	.	8g#	8b
.	.	8f#	8a
=145	=145	=145	=145
2E	8B]	4e	4g#
.	8E	.	.
.	4e	4g#	[4cc#
=146	=146	=146	=146
4F#	8d#	4a	4cc#]
.	8f#	.	.
4G#	8e	8g#	4b#
.	8d#	8f#	.
=147	=147	=147	=147
4A	8r	4e	4cc#
.	8c#	.	.
8G#	8B	4f#	4dd#
8F#	8A	.	.
=148	=148	=148	=148
4G#	4B	4e	8r
.	.	.	8ee
4A#	4c#	4f#	8dd#
.	.	.	8cc#
=149	=149	=149	=149
4B	8B	4f#	4dd#
.	8c#	.	.
4E	8d	4g#	4b
.	8E	.	.
=150	=150	=150	=150
4AA	4e	8r	4cc#
.	.	8a	.
4BB	4B	8g#	4dd#
.	.	8f#	.
=151	=151	=151	=151
2C#	2A#	8e	2ee
.	.	8g#	.
.	.	8f#	.
.	.	8e	.
=152	=152	=152	=152
4D#	8B	4f#	4dd#
.	8BB	.	.
4E	8e	4g#	4cc#
.	16d#	.	.
.	16c#	.	.
=153	=153	=153	=153
4F#	4d#	8f#	4b
.	.	8g#	.
8E	8e	8a#	8cc#
8D#	8f#	8b	8dd#
=154	=154	=154	=154
4C#	8g#	4b	8ee
.	8e	.	16dd#
.	.	.	16ee
4F#	8f#	4a#	8cc#
.	8c#	.	8ff#
=155	=155	=155	=155
4B	8B	8f#	8dd#
.	8A	8d#	8b
4BB	8G#	8e	8cc#
.	8F#	8f#	8dd#
=156	=156	=156	=156
4EE	8E	4g#	2ee
.	8G#	.	.
4r	8B	4r	.
.	8e	.	.
=157	=157	=157	=157
2r	8d#	2r	4ff#
.	8B	.	.
.	8e	.	4gg#
.	8B	.	.
=158	=158	=158	=158
2r	8f#	2r	4aa
.	8B	.	.
.	8d#	.	8gg#
.	8B	.	8ff#
=159	=159	=159	=159
2r	8e	2r	4gg#
.	8c#	.	.
.	8f#	.	4aa#
.	8e	.	.
=160	=160	=160	=160
2r	8d#	2b	8bb
.	8B	.	16aa
.	.	.	16bb
.	8e	.	8gg#
.	8E	.	16ff#
.	.	.	16gg#
=161	=161	=161	=161
2r	8A	4cc#	8aa
.	8F#	.	16gg#
.	.	.	16aa
.	8B	4dd#	8ff#
.	8BB	.	16ee
.	.	.	16ff#
=162	=162	=162	=162
2r	8E	4ee	8gg#
.	8C#	.	8bb
.	8F#	8dd#	8bb
.	8FF#	8cc#	8aa#
=163	=163	=163	=163
2r	8B	4dd#	4bb
.	8G#	.	.
.	8c#	4ee#	8aa
.	8C#	.	8gg#
=164	=164	=164	=164
2r	8F#	4cc#	4aa
.	16G#	.	.
.	16A	.	.
.	8B	4dd#	8gg#
.	8BB	.	8ff#
=165	=165	=165	=165
2r	4E	4.ee	8gg#
.	.	.	16bb
.	.	.	16aa
.	4G#	.	[4bb
.	.	8b	.
=166	=166	=166	=166
2r	8A	4.cc#	8bb]
.	8c#	.	8ee
.	8f#	.	[4aa
.	8F#	8a	.
=167	=167	=167	=167
2r	8G#	4.b	8aa]
.	8B	.	8dd#
.	8e	.	[4gg#
.	8E	8g#	.
=168	=168	=168	=168
2r	8F#	4.a	8gg#]
.	8A	.	8cc#
.	8d#	.	[4ff#
.	8D#	8f#	.
=169	=169	=169	=169
2EE	8E	2g#	8ff#]
.	8e	.	8b
.	8B	.	[4ee
.	8G#	.	.
=170	=170	=170	=170
4FF#	4A	4f#	8ee]
.	.	.	8dd#
4GG#	4B	4e	8ee
.	.	.	8b
=171	=171	=171	=171
4AA	4A	8e	8cc#
.	.	8f#	8dd#
8GG#	8B	8g#	[4ee
8FF#	8c#	8a	.
=172	=172	=172	=172
4GG#	8B	4b	8ee]
.	8E	.	8gg#
4AA#	4c#	4f#	8ff#
.	.	.	8ee
=173	=173	=173	=173
4.BB	8B	2f#	8dd#
.	8c#	.	8ee
.	8d#	.	[4ff#
8AA	8c#	.	.
=174	=174	=174	=174
4GG#	8B#	2dd#	8ff#]
.	8c#	.	8aa
4G#	8A#	.	8gg#
.	8B#	.	8ff#
=175	=175	=175	=175
8A	8c#	[2cc#	[2ee
8G#	8B	.	.
8F#	8A	.	.
8E	8G#	.	.
=176	=176	=176	=176
4F#	4A	2cc#]	8ee]
.	.	.	8gg#
4FF#	4A#T	.	8ff#
.	.	.	8ee
=177	=177	=177	=177
[2BB	8B	4.b	8dd#
.	8c#	.	8ee
.	8d#	.	[4ff#
.	8c#	8a	.
=178	=178	=178	=178
2BB_	4.B	4g#	8ff#]
.	.	.	8b
.	.	4g	[4ee
.	8A#	.	.
=179	=179	=179	=179
2BB_	2B	4.f#	8ee]
.	.	.	16dd#
.	.	.	16cc#
.	.	.	8dd#
.	.	8d#	8b
=180	=180	=180	=180
2BB_	4c#	8e	4ee
.	.	4a	.
.	4d#	.	[4ff#
.	.	16g#	.
.	.	16f#	.
=181	=181	=181	=181
2BB_	4e	4g#	8ff#]
.	.	.	8b
.	8d#	4a#	4ee
.	8c#	.	.
=182	=182	=182	=182
8BB]	4B	4f#	8dd#
8C#	.	.	8ee
8D#	4r	4r	8ff#
8E	.	.	8gg#
=183	=183	=183	=183
8F#	2c#	[2f#	[2a
8G#	.	.	.
8A	.	.	.
8F#	.	.	.
=184	=184	=184	=184
4B	4d#	4f#]	4a]
8r	8r	8r	8r
16r	16r	16r	16r
16F#	16B 16f#	16a	16dd#
=185	=185	=185	=185
4G#	4B 4e	4b	4ee
8r	8r	8r	8r
16r	16r	16r	16r
16E	16B 16e	16b	16gg#
=186	=186	=186	=186
4B	4B 4e	4g#	4b
4BB	4A 4B 4f#	4b	4dd#
=187	=187	=187	=187
4EE	4G# 4B 4e	4b	4ee
4r	4r	4r	4r
==	==	==	==
*-	*-	*-	*-
